X:59
T:59 The Comical Fellow
C:Welch MS
I:abc2nwc
M:6/8
L:1/8
K:D
A|d2f e2A|B2d c2F|GFG EAG|FDD D2:|
A|d2d d2d|=cBA BGB|e2e e2e|dcB cAd|
fef def|gfg efg|agf agf|eee e2a|
aaa a2a|aaa a2a|afd Bec|ddd d2:|

